X: 1
T: HASTE TO THE WEDDING
S: MDT
O: Headington
P: A.(AB2)4
Q: 3/8=108
B: Morris Ring
Z: 2005 John Chambers <jc@trillian.mit.edu>
M: 6/8
L: 1/8
K: F
P: D
A/G/ |\
F>GA Adf | ede  fdB | A>BA AGF | G>Be eag |
faa  adf | ede  fdB | A>BA a2g | fdd  d2 ||
P: B
|: d |\
f>df agf | geg  bag | f>df agf | gfg  efg |
a3   f3  | e>de fdB | A>BA a2g | fdd  d2 :|
